icon-themes/sifr_svg/cmd/sc_graphicdialog.svg

<svg viewBox="0 0 16 16" xmlns="http://www.w3.org/2000/svg"><path d="m0 1v14h11.4c-.964131 0-2.1-.335463-3.1-1.279297l-.3-.294922v-2.425781h2l-5-4-3 3v-7h12v5.65625c.698928.8648712 1 1.825928 1 2.74375v1.185938l1 1v-12.585938zm11 3c-1.1 0-2 .9-2 2s.9 2 2 2 2-.9 2-2-.9-2-2-2zm1 5v1c1.560655 1.623957-.566483 3.497742-2 2h-1v1c.8.77108 1.635355 1 2.4 1h1.6l2 2h1v-1l-2-2v-1.6c0-.881979-.214695-1.6-1-2.4z" fill="#555753"/></svg>

<svg xmlns="http://www.w3.org/2000/svg" viewBox="0 0 16 16">
  <path
     style="fill:#555753"
     d="M 0 1 L 0 15 L 11.4 15 C 10.435869 15 9.3 14.664537 8.3 13.720703 L 8 13.425781 L 8 11 L 10 11 L 5 7 L 2 10 L 2 3 L 14 3 L 14 8.65625 C 14.698928 9.5211212 15 10.482178 15 11.4 L 15 12.585938 L 16 13.585938 L 16 1 L 0 1 z M 11 4 C 9.9 4 9 4.9 9 6 C 9 7.1 9.9 8 11 8 C 12.1 8 13 7.1 13 6 C 13 4.9 12.1 4 11 4 z M 12 9 L 12 10 C 13.560655 11.623957 11.433517 13.497742 10 12 L 9 12 L 9 13 C 9.8 13.77108 10.635355 14 11.4 14 L 13 14 L 15 16 L 16 16 L 16 15 L 14 13 L 14 11.4 C 14 10.518021 13.785305 9.8 13 9 L 12 9 z "
     />
</svg>
